icons/dark/bat.svg

<svg width="16" height="16" viewBox="0 0 16 16" fill="none" xmlns="http://www.w3.org/2000/svg">
<path d="M9.70703 1.29297L12.707 4.29297L13 5V14L12 15H10V14H12V6H8V2H3V10H2V2L3 1H9L9.70703 1.29297ZM9 5H12L9 2V5Z" fill="#C5C5C5"/>
<path d="M2.06154 13.9256C2.06154 13.8009 2.03675 13.7026 1.98718 13.6308C1.93932 13.5573 1.87094 13.5051 1.78205 13.4744C1.69487 13.4436 1.59231 13.4282 1.47436 13.4282H1.12821V14.3872H1.43846C1.52051 14.3872 1.59829 14.3812 1.67179 14.3692C1.74701 14.3573 1.81368 14.335 1.87179 14.3026C1.93162 14.2701 1.97778 14.2239 2.01026 14.1641C2.04444 14.1026 2.06154 14.0231 2.06154 13.9256ZM1.92821 12.4385C1.92821 12.2983 1.88376 12.1974 1.79487 12.1359C1.70769 12.0726 1.57179 12.041 1.38718 12.041H1.12821V12.8641H1.41282C1.59402 12.8641 1.72479 12.8308 1.80513 12.7641C1.88718 12.6974 1.92821 12.5889 1.92821 12.4385ZM2.92821 13.959C2.92821 14.1641 2.88889 14.3342 2.81026 14.4692C2.73162 14.6043 2.62393 14.7103 2.48718 14.7872C2.35043 14.8641 2.19402 14.9188 2.01795 14.9513C1.84359 14.9838 1.65983 15 1.46667 15H0.287179V11.4462H1.41282C1.59573 11.4462 1.76838 11.4615 1.93077 11.4923C2.09487 11.5214 2.24017 11.5709 2.36667 11.641C2.49316 11.7094 2.59231 11.8026 2.6641 11.9205C2.73761 12.0368 2.77436 12.1812 2.77436 12.3538C2.77436 12.4957 2.74444 12.6188 2.68462 12.7231C2.62479 12.8256 2.5453 12.9103 2.44615 12.9769C2.34701 13.0419 2.23932 13.0889 2.12308 13.1179C2.24957 13.1385 2.37436 13.1786 2.49744 13.2385C2.62222 13.2966 2.72479 13.3838 2.80513 13.5C2.88718 13.6162 2.92821 13.7692 2.92821 13.959ZM5.12745 14.2333H4.08643L3.89925 15H3.01976L4.10694 11.4462H5.12745L6.21463 15H5.31463L5.12745 14.2333ZM4.21976 13.6231H4.98899L4.60438 12.0513L4.21976 13.6231ZM8.10619 12.0897V15H7.26516V12.0897H6.26773V11.4462H9.14465L9.05747 12.0897H8.10619Z" fill="#C5C5C5"/>
</svg>

<svg xmlns="http://www.w3.org/2000/svg" width="16" height="16" fill="#c5c5c5" xmlns:v="https://vecta.io/nano"><path d="M9.707 1.293l3 3L13 5v9l-1 1h-2v-1h2V6H8V2H3v8H2V2l1-1h6l.707.293zM9 5h3L9 2v3zm-6.938 8.926c0-.125-.025-.223-.074-.295s-.116-.126-.205-.156-.19-.046-.308-.046h-.346v.959h.31a1.45 1.45 0 0 0 .233-.018.6.6 0 0 0 .2-.067c.06-.033.106-.079.138-.139a.51.51 0 0 0 .051-.239zm-.133-1.487c0-.14-.044-.241-.133-.303s-.223-.095-.408-.095h-.259v.823h.285c.181 0 .312-.033.392-.1s.123-.175.123-.326zm1 1.521c0 .205-.039.375-.118.51a.85.85 0 0 1-.323.318 1.51 1.51 0 0 1-.469.164c-.174.033-.358.049-.551.049H.287v-3.554h1.126a2.78 2.78 0 0 1 .518.046 1.4 1.4 0 0 1 .436.149.77.77 0 0 1 .297.28c.074.116.11.261.11.433a.73.73 0 0 1-.09.369.77.77 0 0 1-.238.254 1.05 1.05 0 0 1-.323.141 1.35 1.35 0 0 1 .374.121.76.76 0 0 1 .308.261c.081.116.123.269.123.459zm2.199.274H4.086L3.899 15H3.02l1.087-3.554h1.021L6.215 15h-.9l-.187-.767zm-.908-.61h.769l-.385-1.572-.385 1.572zm3.886-1.533V15h-.841v-2.91h-.997v-.644h2.877l-.087.644h-.951z"/></svg>
